assets/svg/friends-o.svg

<?xml version="1.0" encoding="UTF-8"?>
<svg width="1000px" height="1000px" viewBox="0 0 1000 1000" version="1.1" xmlns="http://www.w3.org/2000/svg" xmlns:xlink="http://www.w3.org/1999/xlink">
    <!-- Generator: sketchtool 52.4 (67378) - http://www.bohemiancoding.com/sketch -->
    <title>friends-o</title>
    <desc>Created with sketchtool.</desc>
    <g id="新版图标" stroke="none" stroke-width="1" fill="none" fill-rule="evenodd">
        <g id="friends-o" fill="#323233" fill-rule="nonzero">
            <g id="圆角-好友参团-线">
                <path d="M55.6274729,707.766773 L55.5555556,707.766773 C55.5555556,557.341209 169.431576,433.512815 315.679261,417.785946 L315.679261,473.744336 C200.541197,489.115698 111.649671,587.464633 111.113549,706.682274 C111.153056,707.288451 111.173117,707.89993 111.173117,708.516096 C111.173117,723.857339 98.7365827,736.293874 83.3953397,736.293874 C68.0540966,736.293874 55.6175619,723.857339 55.6175619,708.516096 C55.6175619,708.265533 55.6208794,708.015745 55.6274729,707.766773 Z M313.629184,195.699469 C328.970427,195.699469 341.406962,208.136003 341.406962,223.477247 C341.406962,238.81849 328.970427,251.255024 313.629184,251.255024 C267.605455,251.255024 230.29585,288.564628 230.29585,334.588358 C230.29585,380.612087 267.605455,417.921691 313.629184,417.921691 L313.629184,473.477247 C236.922969,473.477247 174.740295,411.294573 174.740295,334.588358 C174.740295,257.882142 236.922969,195.699469 313.629184,195.699469 Z M313.629184,473.477247 C298.287941,473.477247 285.851406,461.040712 285.851406,445.699469 C285.851406,430.358226 298.287941,417.921691 313.629184,417.921691 C328.970427,417.921691 341.406962,430.358226 341.406962,445.699469 C341.406962,461.040712 328.970427,473.477247 313.629184,473.477247 Z M275.454154,804.464518 L219.898598,804.464518 C219.898598,620.369601 369.137015,471.131184 553.231932,471.131184 C737.326848,471.131184 886.565265,620.369601 886.565265,804.464518 L831.00971,804.464518 C831.00971,651.052087 706.644362,526.68674 553.231932,526.68674 C399.819501,526.68674 275.454154,651.052087 275.454154,804.464518 Z M247.676376,832.242296 C232.335133,832.242296 219.898598,819.805761 219.898598,804.464518 C219.898598,789.123275 232.335133,776.68674 247.676376,776.68674 C263.017619,776.68674 275.454154,789.123275 275.454154,804.464518 C275.454154,819.805761 263.017619,832.242296 247.676376,832.242296 Z M858.787487,832.242296 C843.446244,832.242296 831.00971,819.805761 831.00971,804.464518 C831.00971,789.123275 843.446244,776.68674 858.787487,776.68674 C874.12873,776.68674 886.565265,789.123275 886.565265,804.464518 C886.565265,819.805761 874.12873,832.242296 858.787487,832.242296 Z M554.724,444.444444 C631.430216,444.444444 693.612889,382.261771 693.612889,305.555556 C693.612889,228.84934 631.430216,166.666667 554.724,166.666667 C478.017785,166.666667 415.835112,228.84934 415.835112,305.555556 C415.835112,382.261771 478.017785,444.444444 554.724,444.444444 Z M554.724,500 C447.335299,500 360.279556,412.944257 360.279556,305.555556 C360.279556,198.166854 447.335299,111.111111 554.724,111.111111 C662.112702,111.111111 749.168445,198.166854 749.168445,305.555556 C749.168445,412.944257 662.112702,500 554.724,500 Z" id="Oval-4"></path>
            </g>
        </g>
    </g>
</svg>

<svg width="1000" height="1000" xmlns="http://www.w3.org/2000/svg"><path d="M55.627 707.767h-.071c0-150.426 113.876-274.254 260.123-289.981v55.958c-115.138 15.372-204.03 113.72-204.565 232.938.04.606.06 1.218.06 1.834 0 15.341-12.437 27.778-27.779 27.778-15.34 0-27.777-12.437-27.777-27.778 0-.25.003-.5.01-.75zM313.63 195.699c15.341 0 27.778 12.437 27.778 27.778s-12.437 27.778-27.778 27.778c-46.024 0-83.333 37.31-83.333 83.333 0 46.024 37.31 83.334 83.333 83.334v55.555c-76.706 0-138.889-62.182-138.889-138.889 0-76.706 62.183-138.889 138.89-138.889zm0 277.778c-15.341 0-27.778-12.436-27.778-27.778 0-15.34 12.437-27.777 27.778-27.777s27.778 12.436 27.778 27.777c0 15.342-12.437 27.778-27.778 27.778zm-38.175 330.988H219.9c0-184.095 149.238-333.334 333.333-333.334 184.095 0 333.333 149.239 333.333 333.334H831.01c0-153.413-124.366-277.778-277.778-277.778-153.412 0-277.778 124.365-277.778 277.778zm-27.778 27.777c-15.34 0-27.777-12.436-27.777-27.777 0-15.342 12.436-27.778 27.777-27.778 15.342 0 27.778 12.436 27.778 27.778 0 15.34-12.436 27.777-27.778 27.777zm611.111 0c-15.34 0-27.777-12.436-27.777-27.777 0-15.342 12.436-27.778 27.777-27.778 15.342 0 27.778 12.436 27.778 27.778 0 15.34-12.436 27.777-27.778 27.777zM554.724 444.444c76.706 0 138.889-62.182 138.889-138.888 0-76.707-62.183-138.89-138.889-138.89-76.706 0-138.889 62.183-138.889 138.89 0 76.706 62.183 138.888 138.889 138.888zm0 55.556c-107.389 0-194.444-87.056-194.444-194.444 0-107.39 87.055-194.445 194.444-194.445 107.389 0 194.444 87.056 194.444 194.445C749.168 412.944 662.113 500 554.724 500z" fill="#323233" fill-rule="nonzero"/></svg>
